images/3235300.svg

<?xml version="1.0" encoding="UTF-8"?>
<svg xmlns="http://www.w3.org/2000/svg" xmlns:xlink="http://www.w3.org/1999/xlink" width="300pt" height="300pt" viewBox="0 0 300 300" version="1.1">
<defs>
<g>
<symbol overflow="visible" id="glyph0-0">
<path style="stroke:none;" d="M 0.453125 1.59375 L 0.453125 -6.34375 L 4.953125 -6.34375 L 4.953125 1.59375 Z M 0.953125 1.09375 L 4.453125 1.09375 L 4.453125 -5.84375 L 0.953125 -5.84375 Z M 0.953125 1.09375 "/>
</symbol>
<symbol overflow="visible" id="glyph0-1">
<path style="stroke:none;" d="M 0.890625 -6.5625 L 2.078125 -6.5625 L 4.984375 -1.078125 L 4.984375 -6.5625 L 5.84375 -6.5625 L 5.84375 0 L 4.65625 0 L 1.75 -5.484375 L 1.75 0 L 0.890625 0 Z M 0.890625 -6.5625 "/>
</symbol>
<symbol overflow="visible" id="glyph0-2">
<path style="stroke:none;" d="M 3.546875 -5.953125 C 2.898438 -5.953125 2.382812 -5.710938 2 -5.234375 C 1.625 -4.753906 1.4375 -4.101562 1.4375 -3.28125 C 1.4375 -2.445312 1.625 -1.789062 2 -1.3125 C 2.382812 -0.832031 2.898438 -0.59375 3.546875 -0.59375 C 4.191406 -0.59375 4.703125 -0.832031 5.078125 -1.3125 C 5.453125 -1.789062 5.640625 -2.445312 5.640625 -3.28125 C 5.640625 -4.101562 5.453125 -4.753906 5.078125 -5.234375 C 4.703125 -5.710938 4.191406 -5.953125 3.546875 -5.953125 Z M 3.546875 -6.6875 C 4.460938 -6.6875 5.195312 -6.375 5.75 -5.75 C 6.300781 -5.132812 6.578125 -4.3125 6.578125 -3.28125 C 6.578125 -2.238281 6.300781 -1.410156 5.75 -0.796875 C 5.195312 -0.179688 4.460938 0.125 3.546875 0.125 C 2.617188 0.125 1.878906 -0.179688 1.328125 -0.796875 C 0.773438 -1.410156 0.5 -2.238281 0.5 -3.28125 C 0.5 -4.3125 0.773438 -5.132812 1.328125 -5.75 C 1.878906 -6.375 2.617188 -6.6875 3.546875 -6.6875 Z M 3.546875 -6.6875 "/>
</symbol>
<symbol overflow="visible" id="glyph0-3">
<path style="stroke:none;" d="M 0.890625 -6.5625 L 1.765625 -6.5625 L 1.765625 -3.875 L 5 -3.875 L 5 -6.5625 L 5.890625 -6.5625 L 5.890625 0 L 5 0 L 5 -3.125 L 1.765625 -3.125 L 1.765625 0 L 0.890625 0 Z M 0.890625 -6.5625 "/>
</symbol>
</g>
</defs>
<g id="surface35269">
<rect x="0" y="0" width="300" height="300" style="fill:rgb(100%,100%,100%);fill-opacity:1;stroke:none;"/>
<path style="fill:none;stroke-width:1.2;stroke-linecap:butt;stroke-linejoin:miter;stroke:rgb(0%,0%,0%);stroke-opacity:1;stroke-miterlimit:10;" d="M 165.191406 186.136719 L 160.921875 176.558594 "/>
<path style="fill:none;stroke-width:1.2;stroke-linecap:butt;stroke-linejoin:miter;stroke:rgb(0%,0%,100%);stroke-opacity:1;stroke-miterlimit:10;" d="M 160.921875 176.558594 L 156.652344 166.976562 "/>
<path style="fill:none;stroke-width:1.2;stroke-linecap:butt;stroke-linejoin:miter;stroke:rgb(0%,0%,100%);stroke-opacity:1;stroke-miterlimit:10;" d="M 156.652344 166.976562 L 162.8125 158.488281 "/>
<path style="fill:none;stroke-width:1.2;stroke-linecap:butt;stroke-linejoin:miter;stroke:rgb(0%,0%,0%);stroke-opacity:1;stroke-miterlimit:10;" d="M 162.8125 158.488281 L 168.972656 150 "/>
<path style="fill:none;stroke-width:1.2;stroke-linecap:butt;stroke-linejoin:miter;stroke:rgb(0%,0%,0%);stroke-opacity:1;stroke-miterlimit:10;" d="M 135.785156 164.792969 L 146.21875 165.886719 "/>
<path style="fill:none;stroke-width:1.2;stroke-linecap:butt;stroke-linejoin:miter;stroke:rgb(0%,0%,100%);stroke-opacity:1;stroke-miterlimit:10;" d="M 146.21875 165.886719 L 156.652344 166.976562 "/>
<path style=" stroke:none;fill-rule:nonzero;fill:rgb(100%,100%,100%);fill-opacity:1;" d="M 153.652344 161.476562 L 160.652344 161.476562 L 160.652344 172.476562 L 153.652344 172.476562 Z M 153.652344 161.476562 "/>
<g style="fill:rgb(0%,0%,100%);fill-opacity:1;">
  <use xlink:href="#glyph0-1" x="153.652344" y="170.139648"/>
</g>
<path style="fill:none;stroke-width:1.2;stroke-linecap:butt;stroke-linejoin:miter;stroke:rgb(0%,0%,0%);stroke-opacity:1;stroke-miterlimit:10;" d="M 168.972656 150 L 179.40625 151.089844 "/>
<path style="fill:none;stroke-width:1.2;stroke-linecap:butt;stroke-linejoin:miter;stroke:rgb(0%,0%,100%);stroke-opacity:1;stroke-miterlimit:10;" d="M 179.40625 151.089844 L 189.835938 152.183594 "/>
<path style="fill:none;stroke-width:1.2;stroke-linecap:butt;stroke-linejoin:miter;stroke:rgb(0%,0%,0%);stroke-opacity:1;stroke-miterlimit:10;" d="M 171.574219 145.308594 L 179.917969 146.183594 "/>
<path style="fill:none;stroke-width:1.2;stroke-linecap:butt;stroke-linejoin:miter;stroke:rgb(0%,0%,100%);stroke-opacity:1;stroke-miterlimit:10;" d="M 179.917969 146.183594 L 188.265625 147.054688 "/>
<path style="fill:none;stroke-width:1.2;stroke-linecap:butt;stroke-linejoin:miter;stroke:rgb(0%,0%,0%);stroke-opacity:1;stroke-miterlimit:10;" d="M 160.433594 130.839844 L 168.972656 150 "/>
<path style="fill:none;stroke-width:1.2;stroke-linecap:butt;stroke-linejoin:miter;stroke:rgb(0%,0%,100%);stroke-opacity:1;stroke-miterlimit:10;" d="M 189.835938 152.183594 L 195.996094 143.695312 "/>
<path style="fill:none;stroke-width:1.2;stroke-linecap:butt;stroke-linejoin:miter;stroke:rgb(0%,0%,0%);stroke-opacity:1;stroke-miterlimit:10;" d="M 195.996094 143.695312 L 202.160156 135.207031 "/>
<path style=" stroke:none;fill-rule:nonzero;fill:rgb(100%,100%,100%);fill-opacity:1;" d="M 186.835938 146.683594 L 193.835938 146.683594 L 193.835938 157.683594 L 186.835938 157.683594 Z M 186.835938 146.683594 "/>
<g style="fill:rgb(0%,0%,100%);fill-opacity:1;">
  <use xlink:href="#glyph0-1" x="186.835938" y="155.34668"/>
</g>
<path style="fill:none;stroke-width:1.2;stroke-linecap:butt;stroke-linejoin:miter;stroke:rgb(0%,0%,0%);stroke-opacity:1;stroke-miterlimit:10;" d="M 202.160156 135.207031 L 197.886719 125.625 "/>
<path style="fill:none;stroke-width:1.2;stroke-linecap:butt;stroke-linejoin:miter;stroke:rgb(0%,0%,100%);stroke-opacity:1;stroke-miterlimit:10;" d="M 197.886719 125.625 L 193.617188 116.046875 "/>
<path style="fill:none;stroke-width:1.2;stroke-linecap:butt;stroke-linejoin:miter;stroke:rgb(0%,0%,0%);stroke-opacity:1;stroke-miterlimit:10;" d="M 196.796875 135.300781 L 193.378906 127.636719 "/>
<path style="fill:none;stroke-width:1.2;stroke-linecap:butt;stroke-linejoin:miter;stroke:rgb(0%,0%,100%);stroke-opacity:1;stroke-miterlimit:10;" d="M 193.378906 127.636719 L 189.964844 119.972656 "/>
<path style="fill:none;stroke-width:1.2;stroke-linecap:butt;stroke-linejoin:miter;stroke:rgb(0%,0%,0%);stroke-opacity:1;stroke-miterlimit:10;" d="M 202.160156 135.207031 L 212.589844 136.296875 "/>
<path style="fill:none;stroke-width:1.2;stroke-linecap:butt;stroke-linejoin:miter;stroke:rgb(0%,0%,100%);stroke-opacity:1;stroke-miterlimit:10;" d="M 212.589844 136.296875 L 223.023438 137.390625 "/>
<path style="fill:none;stroke-width:1.2;stroke-linecap:butt;stroke-linejoin:miter;stroke:rgb(0%,0%,100%);stroke-opacity:1;stroke-miterlimit:10;" d="M 193.617188 116.046875 L 183.1875 114.953125 "/>
<path style="fill:none;stroke-width:1.2;stroke-linecap:butt;stroke-linejoin:miter;stroke:rgb(0%,0%,0%);stroke-opacity:1;stroke-miterlimit:10;" d="M 183.1875 114.953125 L 172.753906 113.863281 "/>
<path style=" stroke:none;fill-rule:nonzero;fill:rgb(100%,100%,100%);fill-opacity:1;" d="M 190.617188 110.546875 L 197.617188 110.546875 L 197.617188 121.546875 L 190.617188 121.546875 Z M 190.617188 110.546875 "/>
<g style="fill:rgb(0%,0%,100%);fill-opacity:1;">
  <use xlink:href="#glyph0-1" x="190.617188" y="119.209961"/>
</g>
<path style="fill:none;stroke-width:1.2;stroke-linecap:butt;stroke-linejoin:miter;stroke:rgb(0%,0%,0%);stroke-opacity:1;stroke-miterlimit:10;" d="M 172.753906 113.863281 L 160.433594 130.839844 "/>
<path style="fill:none;stroke-width:1.2;stroke-linecap:butt;stroke-linejoin:miter;stroke:rgb(0%,0%,0%);stroke-opacity:1;stroke-miterlimit:10;" d="M 175.515625 118.460938 L 165.660156 132.042969 "/>
<path style="fill:none;stroke-width:1.2;stroke-linecap:butt;stroke-linejoin:miter;stroke:rgb(0%,0%,0%);stroke-opacity:1;stroke-miterlimit:10;" d="M 160.433594 130.839844 L 150 129.75 "/>
<path style="fill:none;stroke-width:1.2;stroke-linecap:butt;stroke-linejoin:miter;stroke:rgb(0%,0%,100%);stroke-opacity:1;stroke-miterlimit:10;" d="M 150 129.75 L 139.566406 128.65625 "/>
<path style="fill:none;stroke-width:1.2;stroke-linecap:butt;stroke-linejoin:miter;stroke:rgb(0%,0%,100%);stroke-opacity:1;stroke-miterlimit:10;" d="M 139.566406 128.65625 L 133.40625 137.144531 "/>
<path style="fill:none;stroke-width:1.2;stroke-linecap:butt;stroke-linejoin:miter;stroke:rgb(0%,0%,0%);stroke-opacity:1;stroke-miterlimit:10;" d="M 133.40625 137.144531 L 127.246094 145.632812 "/>
<path style="fill:none;stroke-width:1.2;stroke-linecap:butt;stroke-linejoin:miter;stroke:rgb(0%,0%,100%);stroke-opacity:1;stroke-miterlimit:10;" d="M 142.332031 133.253906 L 137.402344 140.042969 "/>
<path style="fill:none;stroke-width:1.2;stroke-linecap:butt;stroke-linejoin:miter;stroke:rgb(0%,0%,0%);stroke-opacity:1;stroke-miterlimit:10;" d="M 137.402344 140.042969 L 132.472656 146.835938 "/>
<path style=" stroke:none;fill-rule:nonzero;fill:rgb(100%,100%,100%);fill-opacity:1;" d="M 136.566406 123.15625 L 143.566406 123.15625 L 143.566406 134.15625 L 136.566406 134.15625 Z M 136.566406 123.15625 "/>
<g style="fill:rgb(0%,0%,100%);fill-opacity:1;">
  <use xlink:href="#glyph0-1" x="136.566406" y="131.819336"/>
</g>
<path style="fill:none;stroke-width:1.2;stroke-linecap:butt;stroke-linejoin:miter;stroke:rgb(0%,0%,0%);stroke-opacity:1;stroke-miterlimit:10;" d="M 127.246094 145.632812 L 135.785156 164.792969 "/>
<path style="fill:none;stroke-width:1.2;stroke-linecap:butt;stroke-linejoin:miter;stroke:rgb(0%,0%,0%);stroke-opacity:1;stroke-miterlimit:10;" d="M 127.246094 145.632812 L 106.382812 143.449219 "/>
<path style="fill:none;stroke-width:1.2;stroke-linecap:butt;stroke-linejoin:miter;stroke:rgb(0%,0%,0%);stroke-opacity:1;stroke-miterlimit:10;" d="M 133.789062 163.34375 L 127.628906 171.832031 "/>
<path style="fill:none;stroke-width:1.2;stroke-linecap:butt;stroke-linejoin:miter;stroke:rgb(100%,0%,0%);stroke-opacity:1;stroke-miterlimit:10;" d="M 127.628906 171.832031 L 121.46875 180.320312 "/>
<path style="fill:none;stroke-width:1.2;stroke-linecap:butt;stroke-linejoin:miter;stroke:rgb(0%,0%,0%);stroke-opacity:1;stroke-miterlimit:10;" d="M 137.785156 166.242188 L 131.621094 174.730469 "/>
<path style="fill:none;stroke-width:1.2;stroke-linecap:butt;stroke-linejoin:miter;stroke:rgb(100%,0%,0%);stroke-opacity:1;stroke-miterlimit:10;" d="M 131.621094 174.730469 L 125.460938 183.21875 "/>
<path style=" stroke:none;fill-rule:nonzero;fill:rgb(100%,100%,100%);fill-opacity:1;" d="M 115.464844 176.269531 L 123.464844 176.269531 L 123.464844 187.269531 L 115.464844 187.269531 Z M 115.464844 176.269531 "/>
<g style="fill:rgb(100%,0%,0%);fill-opacity:1;">
  <use xlink:href="#glyph0-2" x="115.464844" y="184.932617"/>
</g>
<path style="fill:none;stroke-width:1.2;stroke-linecap:butt;stroke-linejoin:miter;stroke:rgb(0%,0%,0%);stroke-opacity:1;stroke-miterlimit:10;" d="M 106.382812 143.449219 L 97.839844 124.289062 "/>
<path style="fill:none;stroke-width:1.2;stroke-linecap:butt;stroke-linejoin:miter;stroke:rgb(0%,0%,0%);stroke-opacity:1;stroke-miterlimit:10;" d="M 101.019531 143.542969 L 94.1875 128.214844 "/>
<path style="fill:none;stroke-width:1.2;stroke-linecap:butt;stroke-linejoin:miter;stroke:rgb(0%,0%,0%);stroke-opacity:1;stroke-miterlimit:10;" d="M 94.058594 160.425781 L 106.382812 143.449219 "/>
<path style="fill:none;stroke-width:1.2;stroke-linecap:butt;stroke-linejoin:miter;stroke:rgb(0%,0%,0%);stroke-opacity:1;stroke-miterlimit:10;" d="M 97.839844 124.289062 L 76.976562 122.109375 "/>
<path style="fill:none;stroke-width:1.2;stroke-linecap:butt;stroke-linejoin:miter;stroke:rgb(0%,0%,0%);stroke-opacity:1;stroke-miterlimit:10;" d="M 76.976562 122.109375 L 64.65625 139.085938 "/>
<path style="fill:none;stroke-width:1.2;stroke-linecap:butt;stroke-linejoin:miter;stroke:rgb(0%,0%,0%);stroke-opacity:1;stroke-miterlimit:10;" d="M 79.738281 126.703125 L 69.882812 140.285156 "/>
<path style="fill:none;stroke-width:1.2;stroke-linecap:butt;stroke-linejoin:miter;stroke:rgb(0%,0%,0%);stroke-opacity:1;stroke-miterlimit:10;" d="M 64.65625 139.085938 L 73.195312 158.246094 "/>
<path style="fill:none;stroke-width:1.2;stroke-linecap:butt;stroke-linejoin:miter;stroke:rgb(0%,0%,0%);stroke-opacity:1;stroke-miterlimit:10;" d="M 64.65625 139.085938 L 54.222656 137.992188 "/>
<path style="fill:none;stroke-width:1.2;stroke-linecap:butt;stroke-linejoin:miter;stroke:rgb(100%,0%,0%);stroke-opacity:1;stroke-miterlimit:10;" d="M 54.222656 137.992188 L 43.792969 136.902344 "/>
<path style="fill:none;stroke-width:1.2;stroke-linecap:butt;stroke-linejoin:miter;stroke:rgb(0%,0%,0%);stroke-opacity:1;stroke-miterlimit:10;" d="M 73.195312 158.246094 L 94.058594 160.425781 "/>
<path style="fill:none;stroke-width:1.2;stroke-linecap:butt;stroke-linejoin:miter;stroke:rgb(0%,0%,0%);stroke-opacity:1;stroke-miterlimit:10;" d="M 75.796875 153.554688 L 92.488281 155.300781 "/>
<path style="fill:none;stroke-width:1.2;stroke-linecap:butt;stroke-linejoin:miter;stroke:rgb(100%,0%,0%);stroke-opacity:1;stroke-miterlimit:10;" d="M 43.792969 136.902344 L 39.519531 127.320312 "/>
<path style="fill:none;stroke-width:1.2;stroke-linecap:butt;stroke-linejoin:miter;stroke:rgb(0%,0%,0%);stroke-opacity:1;stroke-miterlimit:10;" d="M 39.519531 127.320312 L 35.25 117.742188 "/>
<path style=" stroke:none;fill-rule:nonzero;fill:rgb(100%,100%,100%);fill-opacity:1;" d="M 39.792969 131.402344 L 47.792969 131.402344 L 47.792969 142.402344 L 39.792969 142.402344 Z M 39.792969 131.402344 "/>
<g style="fill:rgb(100%,0%,0%);fill-opacity:1;">
  <use xlink:href="#glyph0-2" x="39.792969" y="140.06543"/>
</g>
<path style="fill:none;stroke-width:1.2;stroke-linecap:butt;stroke-linejoin:miter;stroke:rgb(0%,0%,100%);stroke-opacity:1;stroke-miterlimit:10;" d="M 223.023438 137.390625 L 227.292969 146.96875 "/>
<path style="fill:none;stroke-width:1.2;stroke-linecap:butt;stroke-linejoin:miter;stroke:rgb(0%,0%,0%);stroke-opacity:1;stroke-miterlimit:10;" d="M 227.292969 146.96875 L 231.5625 156.550781 "/>
<path style="fill:none;stroke-width:1.2;stroke-linecap:butt;stroke-linejoin:miter;stroke:rgb(0%,0%,0%);stroke-opacity:1;stroke-miterlimit:10;" d="M 235.34375 120.414062 L 229.183594 128.902344 "/>
<path style="fill:none;stroke-width:1.2;stroke-linecap:butt;stroke-linejoin:miter;stroke:rgb(0%,0%,100%);stroke-opacity:1;stroke-miterlimit:10;" d="M 229.183594 128.902344 L 223.023438 137.390625 "/>
<path style=" stroke:none;fill-rule:nonzero;fill:rgb(100%,100%,100%);fill-opacity:1;" d="M 220.023438 131.890625 L 227.023438 131.890625 L 227.023438 142.890625 L 220.023438 142.890625 Z M 220.023438 131.890625 "/>
<g style="fill:rgb(0%,0%,100%);fill-opacity:1;">
  <use xlink:href="#glyph0-1" x="220.023438" y="140.553711"/>
</g>
<path style="fill:none;stroke-width:1.2;stroke-linecap:butt;stroke-linejoin:miter;stroke:rgb(0%,0%,0%);stroke-opacity:1;stroke-miterlimit:10;" d="M 231.5625 156.550781 L 252.425781 158.734375 "/>
<path style="fill:none;stroke-width:1.2;stroke-linecap:butt;stroke-linejoin:miter;stroke:rgb(0%,0%,0%);stroke-opacity:1;stroke-miterlimit:10;" d="M 252.425781 158.734375 L 258.589844 150.242188 "/>
<path style="fill:none;stroke-width:1.2;stroke-linecap:butt;stroke-linejoin:miter;stroke:rgb(0%,0%,100%);stroke-opacity:1;stroke-miterlimit:10;" d="M 258.589844 150.242188 L 264.75 141.753906 "/>
<path style="fill:none;stroke-width:1.2;stroke-linecap:butt;stroke-linejoin:miter;stroke:rgb(0%,0%,100%);stroke-opacity:1;stroke-miterlimit:10;" d="M 264.75 141.753906 L 260.480469 132.175781 "/>
<path style="fill:none;stroke-width:1.2;stroke-linecap:butt;stroke-linejoin:miter;stroke:rgb(0%,0%,0%);stroke-opacity:1;stroke-miterlimit:10;" d="M 260.480469 132.175781 L 256.207031 122.59375 "/>
<path style=" stroke:none;fill-rule:nonzero;fill:rgb(100%,100%,100%);fill-opacity:1;" d="M 257.75 136.253906 L 271.75 136.253906 L 271.75 147.253906 L 257.75 147.253906 Z M 257.75 136.253906 "/>
<g style="fill:rgb(0%,0%,100%);fill-opacity:1;">
  <use xlink:href="#glyph0-1" x="257.75" y="144.916992"/>
  <use xlink:href="#glyph0-3" x="264.727539" y="144.916992"/>
</g>
<path style="fill:none;stroke-width:1.2;stroke-linecap:butt;stroke-linejoin:miter;stroke:rgb(0%,0%,0%);stroke-opacity:1;stroke-miterlimit:10;" d="M 256.207031 122.59375 L 235.34375 120.414062 "/>
</g>
</svg>

<svg xmlns="http://www.w3.org/2000/svg" xmlns:xlink="http://www.w3.org/1999/xlink" width="300pt" height="300pt" viewBox="0 0 300 300"><defs><symbol overflow="visible"><path d="M.453 1.594v-7.938h4.5v7.938zm.5-.5h3.5v-6.938h-3.5zm0 0"/></symbol><symbol overflow="visible" id="a"><path d="M.89-6.563H2.08l2.906 5.485v-5.484h.86V0H4.656L1.75-5.484V0H.89zm0 0"/></symbol><symbol overflow="visible" id="b"><path d="M3.547-5.953c-.65 0-1.164.242-1.547.72-.375.48-.563 1.13-.563 1.952 0 .835.188 1.49.563 1.967.383.48.898.72 1.547.72.644 0 1.156-.24 1.53-.72.376-.476.564-1.132.564-1.968 0-.822-.187-1.474-.562-1.954-.375-.477-.887-.72-1.53-.72zm0-.734c.914 0 1.648.312 2.203.937.55.617.828 1.438.828 2.47 0 1.042-.277 1.87-.828 2.483-.555.617-1.29.922-2.203.922-.93 0-1.668-.305-2.22-.922C.774-1.41.5-2.237.5-3.28c0-1.033.273-1.853.828-2.47.55-.625 1.29-.938 2.22-.938zm0 0"/></symbol><symbol overflow="visible" id="c"><path d="M.89-6.563h.876v2.688H5v-2.688h.89V0H5v-3.125H1.766V0H.89zm0 0"/></symbol></defs><g><path fill="#fff" d="M0 0h300v300H0z"/><path d="M165.19 186.137l-4.268-9.578" stroke-width="1.2" stroke="#000" stroke-miterlimit="10" fill="none"/><path d="M160.922 176.56l-4.27-9.583M156.652 166.977l6.16-8.49" stroke-width="1.2" stroke="#00f" stroke-miterlimit="10" fill="none"/><path d="M162.813 158.488l6.16-8.488M135.785 164.793l10.434 1.094" stroke-width="1.2" stroke="#000" stroke-miterlimit="10" fill="none"/><path d="M146.22 165.887l10.432 1.09" stroke-width="1.2" stroke="#00f" stroke-miterlimit="10" fill="none"/><path d="M153.652 161.477h7v11h-7zm0 0" fill="#fff"/><use xlink:href="#a" x="153.652" y="170.14" fill="#00f"/><path d="M168.973 150l10.433 1.09" stroke-width="1.2" stroke="#000" stroke-miterlimit="10" fill="none"/><path d="M179.406 151.09l10.43 1.094" stroke-width="1.2" stroke="#00f" stroke-miterlimit="10" fill="none"/><path d="M171.574 145.31l8.344.874" stroke-width="1.2" stroke="#000" stroke-miterlimit="10" fill="none"/><path d="M179.918 146.184l8.348.87" stroke-width="1.2" stroke="#00f" stroke-miterlimit="10" fill="none"/><path d="M160.434 130.84l8.54 19.16" stroke-width="1.2" stroke="#000" stroke-miterlimit="10" fill="none"/><path d="M189.836 152.184l6.16-8.49" stroke-width="1.2" stroke="#00f" stroke-miterlimit="10" fill="none"/><path d="M195.996 143.695l6.164-8.488" stroke-width="1.2" stroke="#000" stroke-miterlimit="10" fill="none"/><path d="M186.836 146.684h7v11h-7zm0 0" fill="#fff"/><use xlink:href="#a" x="186.836" y="155.347" fill="#00f"/><path d="M202.16 135.207l-4.273-9.582" stroke-width="1.2" stroke="#000" stroke-miterlimit="10" fill="none"/><path d="M197.887 125.625l-4.27-9.578" stroke-width="1.2" stroke="#00f" stroke-miterlimit="10" fill="none"/><path d="M196.797 135.3l-3.418-7.663" stroke-width="1.2" stroke="#000" stroke-miterlimit="10" fill="none"/><path d="M193.38 127.637l-3.415-7.664" stroke-width="1.2" stroke="#00f" stroke-miterlimit="10" fill="none"/><path d="M202.16 135.207l10.43 1.09" stroke-width="1.2" stroke="#000" stroke-miterlimit="10" fill="none"/><path d="M212.59 136.297l10.433 1.094M193.617 116.047l-10.43-1.094" stroke-width="1.2" stroke="#00f" stroke-miterlimit="10" fill="none"/><path d="M183.188 114.953l-10.434-1.09" stroke-width="1.2" stroke="#000" stroke-miterlimit="10" fill="none"/><path d="M190.617 110.547h7v11h-7zm0 0" fill="#fff"/><use xlink:href="#a" x="190.617" y="119.21" fill="#00f"/><path d="M172.754 113.863l-12.32 16.977M175.516 118.46l-9.856 13.583M160.434 130.84L150 129.75" stroke-width="1.2" stroke="#000" stroke-miterlimit="10" fill="none"/><path d="M150 129.75l-10.434-1.094M139.566 128.656l-6.16 8.49" stroke-width="1.2" stroke="#00f" stroke-miterlimit="10" fill="none"/><path d="M133.406 137.145l-6.16 8.488" stroke-width="1.2" stroke="#000" stroke-miterlimit="10" fill="none"/><path d="M142.332 133.254l-4.93 6.79" stroke-width="1.2" stroke="#00f" stroke-miterlimit="10" fill="none"/><path d="M137.402 140.043l-4.93 6.793" stroke-width="1.2" stroke="#000" stroke-miterlimit="10" fill="none"/><path d="M136.566 123.156h7v11h-7zm0 0" fill="#fff"/><use xlink:href="#a" x="136.566" y="131.819" fill="#00f"/><path d="M127.246 145.633l8.54 19.16M127.246 145.633l-20.863-2.184M133.79 163.344l-6.16 8.488" stroke-width="1.2" stroke="#000" stroke-miterlimit="10" fill="none"/><path d="M127.63 171.832l-6.16 8.488" stroke-width="1.2" stroke="#f00" stroke-miterlimit="10" fill="none"/><path d="M137.785 166.242l-6.164 8.488" stroke-width="1.2" stroke="#000" stroke-miterlimit="10" fill="none"/><path d="M131.62 174.73l-6.16 8.49" stroke-width="1.2" stroke="#f00" stroke-miterlimit="10" fill="none"/><path d="M115.465 176.27h8v11h-8zm0 0" fill="#fff"/><use xlink:href="#b" x="115.465" y="184.933" fill="#f00"/><path d="M106.383 143.45l-8.543-19.16M101.02 143.543l-6.832-15.328M94.06 160.426l12.323-16.977M97.84 124.29l-20.863-2.18M76.977 122.11l-12.32 16.976M79.738 126.703l-9.855 13.582M64.656 139.086l8.54 19.16M64.656 139.086l-10.433-1.094" stroke-width="1.2" stroke="#000" stroke-miterlimit="10" fill="none"/><path d="M54.223 137.992l-10.43-1.09" stroke-width="1.2" stroke="#f00" stroke-miterlimit="10" fill="none"/><path d="M73.195 158.246l20.864 2.18M75.797 153.555l16.69 1.746" stroke-width="1.2" stroke="#000" stroke-miterlimit="10" fill="none"/><path d="M43.793 136.902l-4.273-9.582" stroke-width="1.2" stroke="#f00" stroke-miterlimit="10" fill="none"/><path d="M39.52 127.32l-4.27-9.578" stroke-width="1.2" stroke="#000" stroke-miterlimit="10" fill="none"/><path d="M39.793 131.402h8v11h-8zm0 0" fill="#fff"/><use xlink:href="#b" x="39.793" y="140.065" fill="#f00"/><path d="M223.023 137.39l4.27 9.58" stroke-width="1.2" stroke="#00f" stroke-miterlimit="10" fill="none"/><path d="M227.293 146.97l4.27 9.58M235.344 120.414l-6.16 8.488" stroke-width="1.2" stroke="#000" stroke-miterlimit="10" fill="none"/><path d="M229.184 128.902l-6.16 8.49" stroke-width="1.2" stroke="#00f" stroke-miterlimit="10" fill="none"/><path d="M220.023 131.89h7v11h-7zm0 0" fill="#fff"/><use xlink:href="#a" x="220.023" y="140.554" fill="#00f"/><path d="M231.563 156.55l20.863 2.184M252.426 158.734l6.164-8.492" stroke-width="1.2" stroke="#000" stroke-miterlimit="10" fill="none"/><path d="M258.59 150.242l6.16-8.488M264.75 141.754l-4.27-9.578" stroke-width="1.2" stroke="#00f" stroke-miterlimit="10" fill="none"/><path d="M260.48 132.176l-4.273-9.582" stroke-width="1.2" stroke="#000" stroke-miterlimit="10" fill="none"/><path d="M257.75 136.254h14v11h-14zm0 0" fill="#fff"/><g fill="#00f"><use xlink:href="#a" x="257.75" y="144.917"/><use xlink:href="#c" x="264.728" y="144.917"/></g><path d="M256.207 122.594l-20.863-2.18" stroke-width="1.2" stroke="#000" stroke-miterlimit="10" fill="none"/></g></svg>
